X:1
T:Pavane (theme)
C:Gabriel Fauré
O:France
M:4/4
L:1/8
Q:1/4=60
K:F#m
% Flute melody — Op.50, A and B sections, dotted-rhythm encoding
% Range: C#4 – C#5  (C = C#4, c = C#5 in K:F#m)
% Pickup: one quaver (A4)
A | A3G F2E2 | D3C D2E2 | F3G A2B2 | c4 A4 |
A3G c2BA | G3F E2F2 | G4 F3E | F6 z2 |
c3B c2A2 | G3A B2c2 | A3B c2B2 | A4 z4 |
G3A B2A2 | G3F E2D2 | C3D E2F2 | A8 |]
